icons/circle/48/preferences-color.svg

<svg xmlns="http://www.w3.org/2000/svg" viewBox="0 0 48 48">
 <g>
  <path d="m 36.31 5 c 5.859 4.062 9.688 10.831 9.688 18.5 c 0 12.426 -10.07 22.5 -22.5 22.5 c -7.669 0 -14.438 -3.828 -18.5 -9.688 c 1.037 1.822 2.306 3.499 3.781 4.969 c 4.085 3.712 9.514 5.969 15.469 5.969 c 12.703 0 23 -10.298 23 -23 c 0 -5.954 -2.256 -11.384 -5.969 -15.469 c -1.469 -1.475 -3.147 -2.744 -4.969 -3.781 z m 4.969 3.781 c 3.854 4.113 6.219 9.637 6.219 15.719 c 0 12.703 -10.297 23 -23 23 c -6.081 0 -11.606 -2.364 -15.719 -6.219 c 4.16 4.144 9.883 6.719 16.219 6.719 c 12.703 0 23 -10.298 23 -23 c 0 -6.335 -2.575 -12.06 -6.719 -16.219 z" style="opacity:0.05"/>
  <path d="m 41.28 8.781 c 3.712 4.085 5.969 9.514 5.969 15.469 c 0 12.703 -10.297 23 -23 23 c -5.954 0 -11.384 -2.256 -15.469 -5.969 c 4.113 3.854 9.637 6.219 15.719 6.219 c 12.703 0 23 -10.298 23 -23 c 0 -6.081 -2.364 -11.606 -6.219 -15.719 z" style="opacity:0.1"/>
  <path d="m 31.25 2.375 c 8.615 3.154 14.75 11.417 14.75 21.13 c 0 12.426 -10.07 22.5 -22.5 22.5 c -9.708 0 -17.971 -6.135 -21.12 -14.75 a 23 23 0 0 0 44.875 -7 a 23 23 0 0 0 -16 -21.875 z" style="opacity:0.2"/>
 </g>
 <path d="m 24 1 c -1.721 0 -3.387 0.204 -5 0.563 l 0 44.875 c 1.613 0.358 3.279 0.563 5 0.563 c 1.721 0 3.387 -0.204 5 -0.563 l 0 -44.875 c -1.613 -0.358 -3.279 -0.563 -5 -0.563 z" style="fill:#f3f284;fill-opacity:1;stroke:none;fill-rule:nonzero"/>
 <path d="m 9 6.563 c -4.897 4.218 -8 10.467 -8 17.438 c 0 6.971 3.103 13.22 8 17.438 l 0 -34.875 z" style="fill:#9ab9dd;fill-opacity:1;stroke:none;fill-rule:nonzero"/>
 <path d="m 19 1.563 c -3.76 0.835 -7.182 2.573 -10 5 l 0 34.875 c 2.818 2.427 6.24 4.165 10 5 l 0 -44.875 z" style="fill:#9add9c;fill-opacity:1;stroke:none;fill-rule:nonzero"/>
 <path d="m 29 1.563 l 0 44.875 c 3.76 -0.835 7.182 -2.573 10 -5 l 0 -34.875 c -2.818 -2.427 -6.24 -4.165 -10 -5 z" style="fill:#edb968;fill-opacity:1;stroke:none;fill-rule:nonzero"/>
 <path d="m 39 6.563 l 0 34.875 c 4.897 -4.218 8 -10.467 8 -17.438 c 0 -6.971 -3.103 -13.22 -8 -17.438 z" style="fill:#ed8e68;fill-opacity:1;stroke:none;fill-rule:nonzero"/>
 <g>
  <path d="m 40.03 7.531 c 3.712 4.084 5.969 9.514 5.969 15.469 0 12.703 -10.297 23 -23 23 c -5.954 0 -11.384 -2.256 -15.469 -5.969 4.178 4.291 10.01 6.969 16.469 6.969 c 12.703 0 23 -10.298 23 -23 0 -6.462 -2.677 -12.291 -6.969 -16.469 z" style="opacity:0.1"/>
 </g>
</svg>

<svg xmlns="http://www.w3.org/2000/svg" viewBox="0 0 48 48">
  <path d="M36.31 5c5.859 4.062 9.688 10.831 9.688 18.5 0 12.426-10.07 22.5-22.5 22.5-7.669 0-14.438-3.828-18.5-9.688a23.24 23.24 0 0 0 3.781 4.969 22.923 22.923 0 0 0 15.469 5.969c12.703 0 23-10.298 23-23a22.92 22.92 0 0 0-5.969-15.469A23.216 23.216 0 0 0 36.31 5zm4.969 3.781A22.911 22.911 0 0 1 47.498 24.5c0 12.703-10.297 23-23 23a22.909 22.909 0 0 1-15.719-6.219C12.939 45.425 18.662 48 24.998 48c12.703 0 23-10.298 23-23 0-6.335-2.575-12.06-6.719-16.219z" opacity=".05"/>
  <path d="M41.28 8.781a22.923 22.923 0 0 1 5.969 15.469c0 12.703-10.297 23-23 23A22.92 22.92 0 0 1 8.78 41.281 22.911 22.911 0 0 0 24.499 47.5c12.703 0 23-10.298 23-23A22.909 22.909 0 0 0 41.28 8.781z" opacity=".1"/>
  <path d="M31.25 2.375C39.865 5.529 46 13.792 46 23.505c0 12.426-10.07 22.5-22.5 22.5-9.708 0-17.971-6.135-21.12-14.75a23 23 0 0 0 44.875-7 23 23 0 0 0-16-21.875z" opacity=".2"/>
  <path d="M24 1c-1.721 0-3.387.204-5 .563v44.875c1.613.358 3.279.563 5 .563s3.387-.204 5-.563V1.563A23.009 23.009 0 0 0 24 1z" fill="#f3f284"/>
  <path d="M9 6.563C4.103 10.781 1 17.03 1 24.001c0 6.971 3.103 13.22 8 17.438V6.564z" fill="#9ab9dd"/>
  <path d="M19 1.563a22.925 22.925 0 0 0-10 5v34.875a22.925 22.925 0 0 0 10 5V1.563z" fill="#9add9c"/>
  <path d="M29 1.563v44.875a22.925 22.925 0 0 0 10-5V6.563a22.925 22.925 0 0 0-10-5z" fill="#edb968"/>
  <path d="M39 6.563v34.875C43.897 37.22 47 30.971 47 24c0-6.971-3.103-13.22-8-17.438z" fill="#ed8e68"/>
  <g>
    <path d="M40.03 7.531A22.922 22.922 0 0 1 45.999 23c0 12.703-10.297 23-23 23A22.92 22.92 0 0 1 7.53 40.031C11.708 44.322 17.54 47 23.999 47c12.703 0 23-10.298 23-23 0-6.462-2.677-12.291-6.969-16.469z" opacity=".1"/>
  </g>
</svg>
